X:877
T:It's Nice To Get Up In The Morning
C:Joe Buchanan's Scottish Tome - Page 435.1
I:435 1
R:Two-step
Z:Carl Allison
L:1/8
M:6/8
K:G
B>A | GFE DB,C | D2 D D2 E | G2 G A2 F | G G B/B/ |
c2 d e2 d | d2 B BAG | A2 E F2 G | A3 A2 B |
c2 d e2 d | d2 B BAB | d2 B BAG | A3 B2 A |
GFE DCB, | D2 D DDE |  GGG AGF | G3 G3 |]
